(SELECTOR)
(0002)
(T2  D=0.375 CR=0. TAPER=118DEG - ZMIN=-0.956 - DRILL)
G90 G94 G40 G49 G17
G20
G90

(LARGE-TOP)
M5
M9
T2 M6
S2000 M3
G54
M9
G0 X-2.329 Y-0.714
G43 Z0.397 H2
Z0.2
G98 G73 X-2.329 Y-0.714 Z-0.3686 R0.1 Q0.045 F2.
G80
Z0.397

(LARGE-BOTTOM)
M9
G0 X-2.329 Y-0.714
Z-0.168
Z-0.268
G73 X-2.329 Y-0.714 Z-0.956 R-0.468 Q0.045 F2.
G80
Z-0.168

(LARGE-RETURN)
M9
G0 Z0.397
X-2.329 Y-0.714
Z0.327
G73 X-2.329 Y-0.714 Z0.247 R0.317 Q0.045 F2.
G80
Z1.5

M9
M30
