(TRIGGER)
(0003)
(T4  D=0.156 CR=0. TAPER=118DEG - ZMIN=-0.956 - DRILL)
G90 G94 G40 G49 G17
G20
G90

(SMALL-TOP)
M5
M9
T4 M6
S5000 M3
G54
M8
G0 X-1.204 Y-0.939
G43 Z0.397 H4
Z0.2
G98 G73 X-1.204 Y-0.939 Z-0.158 R0.1 Q0.045 F2.
X-0.361 Y-0.625
G80
Z0.397

(SMALL-BOTTOM)
M8
G0 X-1.204 Y-0.939
Z0.397
Z0.297
G73 X-1.204 Y-0.939 Z-0.956 R-0.468 Q0.045 F2.
X-0.361 Y-0.625
G80
Z1.5

M9
M30
